Newaita-dark/apps/22/korganizer.svg

<?xml version="1.0" encoding="UTF-8"?>
<svg xmlns="http://www.w3.org/2000/svg" xmlns:xlink="http://www.w3.org/1999/xlink" width="22pt" height="22pt" viewBox="0 0 22 22" version="1.1">
<defs>
<linearGradient id="linear0" gradientUnits="userSpaceOnUse" x1="254" y1="233.5" x2="254" y2="254.666672" gradientTransform="matrix(0.0429729,0,0,0.0429729,-0.00000262285,9.239165)">
<stop offset="0" style="stop-color:rgb(0%,0%,0%);stop-opacity:0.27451;"/>
<stop offset="1" style="stop-color:rgb(0%,0%,0%);stop-opacity:0;"/>
</linearGradient>
<radialGradient id="radial0" gradientUnits="userSpaceOnUse" cx="450.908936" cy="189.579361" fx="450.908936" fy="189.579361" r="21.166656" gradientTransform="matrix(0.000000119742,-0.0537161,-0.0966889,-0.0000000698078,36.522014,43.721791)">
<stop offset="0" style="stop-color:rgb(0%,0%,0%);stop-opacity:0.313725;"/>
<stop offset="0.222222" style="stop-color:rgb(0%,0%,0%);stop-opacity:0.27451;"/>
<stop offset="1" style="stop-color:rgb(0%,0%,0%);stop-opacity:0;"/>
</radialGradient>
<radialGradient id="radial1" gradientUnits="userSpaceOnUse" cx="450.908936" cy="189.579361" fx="450.908936" fy="189.579361" r="21.166656" gradientTransform="matrix(-0.000000119742,0.0537161,0.0966889,0.0000000698078,-14.578108,-5.175142)">
<stop offset="0" style="stop-color:rgb(0%,0%,0%);stop-opacity:0.313725;"/>
<stop offset="0.222222" style="stop-color:rgb(0%,0%,0%);stop-opacity:0.27451;"/>
<stop offset="1" style="stop-color:rgb(0%,0%,0%);stop-opacity:0;"/>
</radialGradient>
<radialGradient id="radial2" gradientUnits="userSpaceOnUse" cx="450.908936" cy="189.579361" fx="450.908936" fy="189.579361" r="21.166656" gradientTransform="matrix(-0.000000119742,-0.0537161,0.0966889,-0.0000000698078,-14.578108,43.721791)">
<stop offset="0" style="stop-color:rgb(0%,0%,0%);stop-opacity:0.313725;"/>
<stop offset="0.222222" style="stop-color:rgb(0%,0%,0%);stop-opacity:0.27451;"/>
<stop offset="1" style="stop-color:rgb(0%,0%,0%);stop-opacity:0;"/>
</radialGradient>
<radialGradient id="radial3" gradientUnits="userSpaceOnUse" cx="450.908936" cy="189.579361" fx="450.908936" fy="189.579361" r="21.166656" gradientTransform="matrix(0.000000119742,0.0537161,-0.0966889,0.0000000698078,36.522013,-5.175142)">
<stop offset="0" style="stop-color:rgb(0%,0%,0%);stop-opacity:0.313725;"/>
<stop offset="0.222222" style="stop-color:rgb(0%,0%,0%);stop-opacity:0.27451;"/>
<stop offset="1" style="stop-color:rgb(0%,0%,0%);stop-opacity:0;"/>
</radialGradient>
<linearGradient id="linear1" gradientUnits="userSpaceOnUse" x1="254" y1="-168.666656" x2="254" y2="233.5" gradientTransform="matrix(0.0429729,0,0,0.0429729,0,9.239163)">
<stop offset="0" style="stop-color:rgb(89.803922%,45.098039%,45.098039%);stop-opacity:1;"/>
<stop offset="1" style="stop-color:rgb(93.72549%,32.54902%,31.372549%);stop-opacity:1;"/>
</linearGradient>
<linearGradient id="linear2" gradientUnits="userSpaceOnUse" x1="296.333344" y1="-52.25" x2="296.333344" y2="-94.583336" gradientTransform="matrix(1,0,0,1,0,-8.916562)">
<stop offset="0" style="stop-color:rgb(87.843137%,87.843137%,87.843137%);stop-opacity:1;"/>
<stop offset="1" style="stop-color:rgb(93.333333%,93.333333%,93.333333%);stop-opacity:1;"/>
</linearGradient>
<linearGradient id="linear3" gradientUnits="userSpaceOnUse" x1="127" y1="-62.833332" x2="127" y2="-105.166656" gradientTransform="matrix(1,0,0,1,1.539017,3.715165)">
<stop offset="0" style="stop-color:rgb(87.843137%,87.843137%,87.843137%);stop-opacity:1;"/>
<stop offset="1" style="stop-color:rgb(93.333333%,93.333333%,93.333333%);stop-opacity:1;"/>
</linearGradient>
<linearGradient id="linear4" gradientUnits="userSpaceOnUse" x1="296.333344" y1="-52.25" x2="296.333344" y2="-94.583336" >
<stop offset="0" style="stop-color:rgb(87.843137%,87.843137%,87.843137%);stop-opacity:1;"/>
<stop offset="1" style="stop-color:rgb(93.333333%,93.333333%,93.333333%);stop-opacity:1;"/>
</linearGradient>
<linearGradient id="linear5" gradientUnits="userSpaceOnUse" x1="127" y1="-52.25" x2="127" y2="-94.583336" >
<stop offset="0" style="stop-color:rgb(87.843137%,87.843137%,87.843137%);stop-opacity:1;"/>
<stop offset="1" style="stop-color:rgb(93.333333%,93.333333%,93.333333%);stop-opacity:1;"/>
</linearGradient>
<linearGradient id="linear6" gradientUnits="userSpaceOnUse" x1="296.333344" y1="-52.25" x2="296.333344" y2="-94.583336" >
<stop offset="0" style="stop-color:rgb(87.843137%,87.843137%,87.843137%);stop-opacity:1;"/>
<stop offset="1" style="stop-color:rgb(93.333333%,93.333333%,93.333333%);stop-opacity:1;"/>
</linearGradient>
<linearGradient id="linear7" gradientUnits="userSpaceOnUse" x1="127" y1="-52.25" x2="127" y2="-94.583336" >
<stop offset="0" style="stop-color:rgb(87.843137%,87.843137%,87.843137%);stop-opacity:1;"/>
<stop offset="1" style="stop-color:rgb(93.333333%,93.333333%,93.333333%);stop-opacity:1;"/>
</linearGradient>
<linearGradient id="linear8" gradientUnits="userSpaceOnUse" x1="296.333344" y1="-52.25" x2="296.333344" y2="-94.583336" >
<stop offset="0" style="stop-color:rgb(87.843137%,87.843137%,87.843137%);stop-opacity:1;"/>
<stop offset="1" style="stop-color:rgb(93.333333%,93.333333%,93.333333%);stop-opacity:1;"/>
</linearGradient>
<linearGradient id="linear9" gradientUnits="userSpaceOnUse" x1="127" y1="-52.25" x2="127" y2="-94.583336" >
<stop offset="0" style="stop-color:rgb(87.843137%,87.843137%,87.843137%);stop-opacity:1;"/>
<stop offset="1" style="stop-color:rgb(93.333333%,93.333333%,93.333333%);stop-opacity:1;"/>
</linearGradient>
</defs>
<g id="surface1">
<path style=" stroke:none;fill-rule:nonzero;fill:url(#linear0);" d="M 3.523438 19.273438 L 18.417969 19.273438 L 18.417969 20.183594 L 3.523438 20.183594 Z M 3.523438 19.273438 "/>
<path style=" stroke:none;fill-rule:nonzero;fill:url(#radial0);" d="M 18.417969 19.273438 L 20.238281 19.273438 L 20.238281 18.363281 L 18.417969 18.363281 Z M 18.417969 19.273438 "/>
<path style=" stroke:none;fill-rule:nonzero;fill:url(#radial1);" d="M 3.523438 19.273438 L 1.707031 19.273438 L 1.707031 20.183594 L 3.523438 20.183594 Z M 3.523438 19.273438 "/>
<path style=" stroke:none;fill-rule:nonzero;fill:url(#radial2);" d="M 3.523438 19.273438 L 1.707031 19.273438 L 1.707031 18.363281 L 3.523438 18.363281 Z M 3.523438 19.273438 "/>
<path style=" stroke:none;fill-rule:nonzero;fill:url(#radial3);" d="M 18.417969 19.273438 L 20.238281 19.273438 L 20.238281 20.183594 L 18.417969 20.183594 Z M 18.417969 19.273438 "/>
<path style=" stroke:none;fill-rule:nonzero;fill:url(#linear1);" d="M 2.5 1.992188 L 19.328125 1.992188 C 19.707031 1.992188 20.011719 2.296875 20.011719 2.671875 L 20.011719 18.589844 C 20.011719 18.96875 19.707031 19.273438 19.328125 19.273438 L 2.5 19.273438 C 2.125 19.273438 1.820312 18.96875 1.820312 18.589844 L 1.820312 2.671875 C 1.820312 2.296875 2.125 1.992188 2.5 1.992188 Z M 2.5 1.992188 "/>
<path style=" stroke:none;fill-rule:nonzero;fill:rgb(0%,0%,0%);fill-opacity:0.196078;" d="M 2.730469 19.273438 C 2.226562 19.273438 1.820312 18.867188 1.820312 18.363281 L 1.820312 18.25 C 1.820312 18.753906 2.226562 19.160156 2.730469 19.160156 L 19.101562 19.160156 C 19.605469 19.160156 20.011719 18.753906 20.011719 18.25 L 20.011719 18.363281 C 20.011719 18.867188 19.605469 19.273438 19.101562 19.273438 Z M 2.730469 19.273438 "/>
<path style=" stroke:none;fill-rule:nonzero;fill:rgb(90.196079%,90.196079%,90.196079%);fill-opacity:0.588235;" d="M 2.730469 1.992188 C 2.226562 1.992188 1.820312 2.398438 1.820312 2.902344 L 1.820312 3.015625 C 1.820312 2.511719 2.226562 2.105469 2.730469 2.105469 L 19.101562 2.105469 C 19.605469 2.105469 20.011719 2.511719 20.011719 3.015625 L 20.011719 2.902344 C 20.011719 2.398438 19.605469 1.992188 19.101562 1.992188 Z M 2.730469 1.992188 "/>
<path style=" stroke:none;fill-rule:nonzero;fill:rgb(12.941177%,12.941177%,12.941177%);fill-opacity:1;" d="M 2.5 1.925781 C 2.089844 1.925781 1.753906 2.261719 1.753906 2.671875 L 1.753906 18.589844 C 1.753906 19.003906 2.089844 19.335938 2.5 19.335938 L 19.328125 19.335938 C 19.742188 19.335938 20.074219 19.003906 20.074219 18.589844 L 20.074219 2.671875 C 20.074219 2.261719 19.742188 1.925781 19.328125 1.925781 Z M 2.5 2.054688 L 19.328125 2.054688 C 19.671875 2.054688 19.945312 2.328125 19.945312 2.671875 L 19.945312 18.589844 C 19.945312 18.933594 19.671875 19.207031 19.328125 19.207031 L 2.5 19.207031 C 2.15625 19.207031 1.882812 18.933594 1.882812 18.589844 L 1.882812 2.671875 C 1.882812 2.328125 2.15625 2.054688 2.5 2.054688 Z M 2.5 2.054688 "/>
<path style="fill-rule:nonzero;fill:url(#linear2);stroke-width:3;stroke-linecap:round;stroke-linejoin:round;stroke:rgb(12.941177%,12.941177%,12.941177%);stroke-opacity:1;stroke-miterlimit:4;" d="M 190.52726 -103.465196 L 402.143415 -103.465196 C 408.051942 -103.465196 412.778763 -98.738375 412.778763 -92.920749 L 412.778763 -73.377161 C 412.778763 -67.559534 408.051942 -62.832713 402.143415 -62.832713 L 190.52726 -62.832713 C 184.618733 -62.832713 179.891912 -67.559534 179.891912 -73.377161 L 179.891912 -92.920749 C 179.891912 -98.738375 184.618733 -103.465196 190.52726 -103.465196 Z M 190.52726 -103.465196 " transform="matrix(0.0429729,0,0,0.0429729,0,9.239163)"/>
<path style="fill-rule:nonzero;fill:url(#linear3);stroke-width:3;stroke-linecap:butt;stroke-linejoin:round;stroke:rgb(12.941177%,12.941177%,12.941177%);stroke-opacity:1;stroke-miterlimit:4;" d="M 98.354244 -100.283682 C 94.354626 -96.284064 94.445526 -89.739235 98.626945 -85.557816 L 121.352048 -62.832713 C 123.260956 -60.923804 125.806168 -59.9239 128.44228 -59.9239 C 128.44228 -59.9239 128.53318 -59.9239 128.53318 -59.9239 C 128.53318 -59.9239 128.624081 -59.9239 128.624081 -59.9239 C 131.260193 -59.9239 133.805404 -60.923804 135.714313 -62.832713 L 165.893249 -93.011649 C 170.074668 -97.193068 170.165568 -103.737898 166.16595 -107.737516 L 165.620548 -108.192018 C 161.62093 -112.191636 155.0761 -112.100735 150.894681 -108.010217 L 128.53318 -85.557816 L 113.534613 -100.556383 C 109.444094 -104.646902 102.899265 -104.828703 98.899646 -100.829085 Z M 98.354244 -100.283682 " transform="matrix(0.0429729,0,0,0.0429729,0,9.239163)"/>
<path style="fill-rule:nonzero;fill:url(#linear4);stroke-width:3;stroke-linecap:round;stroke-linejoin:round;stroke:rgb(12.941177%,12.941177%,12.941177%);stroke-opacity:1;stroke-miterlimit:4;" d="M 190.52726 -94.608474 L 402.143415 -94.608474 C 408.051942 -94.608474 412.778763 -89.881652 412.778763 -83.973126 L 412.778763 -64.520438 C 412.778763 -58.611911 408.051942 -53.88509 402.143415 -53.88509 L 190.52726 -53.88509 C 184.618733 -53.88509 179.891912 -58.611911 179.891912 -64.520438 L 179.891912 -83.973126 C 179.891912 -89.881652 184.618733 -94.608474 190.52726 -94.608474 Z M 190.52726 -94.608474 " transform="matrix(0.0429729,0,0,0.0429729,0,11.96794)"/>
<path style="fill-rule:nonzero;fill:url(#linear5);stroke-width:3;stroke-linecap:butt;stroke-linejoin:round;stroke:rgb(12.941177%,12.941177%,12.941177%);stroke-opacity:1;stroke-miterlimit:4;" d="M 126.987873 -94.608474 C 138.714026 -94.608474 148.167669 -85.063931 148.167669 -73.428678 C 148.167669 -61.702525 138.714026 -52.248882 126.987873 -52.248882 C 115.352621 -52.248882 105.808078 -61.702525 105.808078 -73.428678 C 105.808078 -85.063931 115.352621 -94.608474 126.987873 -94.608474 Z M 126.987873 -94.608474 " transform="matrix(0.0429729,0,0,0.0429729,0,11.96794)"/>
<path style="fill-rule:nonzero;fill:url(#linear6);stroke-width:3;stroke-linecap:round;stroke-linejoin:round;stroke:rgb(12.941177%,12.941177%,12.941177%);stroke-opacity:1;stroke-miterlimit:4;" d="M 190.52726 -94.607979 L 402.143415 -94.607979 C 408.051942 -94.607979 412.778763 -89.881158 412.778763 -83.972631 L 412.778763 -64.519943 C 412.778763 -58.611416 408.051942 -53.884595 402.143415 -53.884595 L 190.52726 -53.884595 C 184.618733 -53.884595 179.891912 -58.611416 179.891912 -64.519943 L 179.891912 -83.972631 C 179.891912 -89.881158 184.618733 -94.607979 190.52726 -94.607979 Z M 190.52726 -94.607979 " transform="matrix(0.0429729,0,0,0.0429729,0,15.151512)"/>
<path style="fill-rule:nonzero;fill:url(#linear7);stroke-width:3;stroke-linecap:butt;stroke-linejoin:round;stroke:rgb(12.941177%,12.941177%,12.941177%);stroke-opacity:1;stroke-miterlimit:4;" d="M 126.987873 -94.607979 C 138.714026 -94.607979 148.167669 -85.063436 148.167669 -73.428183 C 148.167669 -61.70203 138.714026 -52.248388 126.987873 -52.248388 C 115.352621 -52.248388 105.808078 -61.70203 105.808078 -73.428183 C 105.808078 -85.063436 115.352621 -94.607979 126.987873 -94.607979 Z M 126.987873 -94.607979 " transform="matrix(0.0429729,0,0,0.0429729,0,15.151512)"/>
<path style="fill-rule:nonzero;fill:url(#linear8);stroke-width:3;stroke-linecap:round;stroke-linejoin:round;stroke:rgb(12.941177%,12.941177%,12.941177%);stroke-opacity:1;stroke-miterlimit:4;" d="M 190.52726 -94.607473 L 402.143415 -94.607473 C 408.051942 -94.607473 412.778763 -89.880651 412.778763 -83.972125 L 412.778763 -64.519437 C 412.778763 -58.61091 408.051942 -53.884089 402.143415 -53.884089 L 190.52726 -53.884089 C 184.618733 -53.884089 179.891912 -58.61091 179.891912 -64.519437 L 179.891912 -83.972125 C 179.891912 -89.880651 184.618733 -94.607473 190.52726 -94.607473 Z M 190.52726 -94.607473 " transform="matrix(0.0429729,0,0,0.0429729,0,18.335084)"/>
<path style="fill-rule:nonzero;fill:url(#linear9);stroke-width:3;stroke-linecap:butt;stroke-linejoin:round;stroke:rgb(12.941177%,12.941177%,12.941177%);stroke-opacity:1;stroke-miterlimit:4;" d="M 126.987873 -94.607473 C 138.714026 -94.607473 148.167669 -85.06293 148.167669 -73.427677 C 148.167669 -61.701524 138.714026 -52.247882 126.987873 -52.247882 C 115.352621 -52.247882 105.808078 -61.701524 105.808078 -73.427677 C 105.808078 -85.06293 115.352621 -94.607473 126.987873 -94.607473 Z M 126.987873 -94.607473 " transform="matrix(0.0429729,0,0,0.0429729,0,18.335084)"/>
</g>
</svg>

<svg xmlns="http://www.w3.org/2000/svg" width="22pt" height="22pt" viewBox="0 0 22 22"><defs><linearGradient id="a" gradientUnits="userSpaceOnUse" x1="254" y1="233.5" x2="254" y2="254.667" gradientTransform="matrix(.04297 0 0 .04297 0 9.24)"><stop offset="0" stop-opacity=".275"/><stop offset="1" stop-opacity="0"/></linearGradient><radialGradient id="b" gradientUnits="userSpaceOnUse" cx="450.909" cy="189.579" fx="450.909" fy="189.579" r="21.167" gradientTransform="matrix(0 -.05372 -.09669 0 36.522 43.722)"><stop offset="0" stop-opacity=".314"/><stop offset=".222" stop-opacity=".275"/><stop offset="1" stop-opacity="0"/></radialGradient><radialGradient id="c" gradientUnits="userSpaceOnUse" cx="450.909" cy="189.579" fx="450.909" fy="189.579" r="21.167" gradientTransform="matrix(0 .05372 .09669 0 -14.578 -5.175)"><stop offset="0" stop-opacity=".314"/><stop offset=".222" stop-opacity=".275"/><stop offset="1" stop-opacity="0"/></radialGradient><radialGradient id="d" gradientUnits="userSpaceOnUse" cx="450.909" cy="189.579" fx="450.909" fy="189.579" r="21.167" gradientTransform="matrix(0 -.05372 .09669 0 -14.578 43.722)"><stop offset="0" stop-opacity=".314"/><stop offset=".222" stop-opacity=".275"/><stop offset="1" stop-opacity="0"/></radialGradient><radialGradient id="e" gradientUnits="userSpaceOnUse" cx="450.909" cy="189.579" fx="450.909" fy="189.579" r="21.167" gradientTransform="matrix(0 .05372 -.09669 0 36.522 -5.175)"><stop offset="0" stop-opacity=".314"/><stop offset=".222" stop-opacity=".275"/><stop offset="1" stop-opacity="0"/></radialGradient><linearGradient id="f" gradientUnits="userSpaceOnUse" x1="254" y1="-168.667" x2="254" y2="233.5" gradientTransform="matrix(.04297 0 0 .04297 0 9.24)"><stop offset="0" stop-color="#e57373"/><stop offset="1" stop-color="#ef5350"/></linearGradient><linearGradient id="g" gradientUnits="userSpaceOnUse" x1="296.333" y1="-52.25" x2="296.333" y2="-94.583" gradientTransform="translate(0 -8.917)"><stop offset="0" stop-color="#e0e0e0"/><stop offset="1" stop-color="#eee"/></linearGradient><linearGradient id="h" gradientUnits="userSpaceOnUse" x1="127" y1="-62.833" x2="127" y2="-105.167" gradientTransform="translate(1.539 3.715)"><stop offset="0" stop-color="#e0e0e0"/><stop offset="1" stop-color="#eee"/></linearGradient><linearGradient id="i" gradientUnits="userSpaceOnUse" x1="296.333" y1="-52.25" x2="296.333" y2="-94.583"><stop offset="0" stop-color="#e0e0e0"/><stop offset="1" stop-color="#eee"/></linearGradient><linearGradient id="j" gradientUnits="userSpaceOnUse" x1="127" y1="-52.25" x2="127" y2="-94.583"><stop offset="0" stop-color="#e0e0e0"/><stop offset="1" stop-color="#eee"/></linearGradient><linearGradient id="k" gradientUnits="userSpaceOnUse" x1="296.333" y1="-52.25" x2="296.333" y2="-94.583"><stop offset="0" stop-color="#e0e0e0"/><stop offset="1" stop-color="#eee"/></linearGradient><linearGradient id="l" gradientUnits="userSpaceOnUse" x1="127" y1="-52.25" x2="127" y2="-94.583"><stop offset="0" stop-color="#e0e0e0"/><stop offset="1" stop-color="#eee"/></linearGradient><linearGradient id="m" gradientUnits="userSpaceOnUse" x1="296.333" y1="-52.25" x2="296.333" y2="-94.583"><stop offset="0" stop-color="#e0e0e0"/><stop offset="1" stop-color="#eee"/></linearGradient><linearGradient id="n" gradientUnits="userSpaceOnUse" x1="127" y1="-52.25" x2="127" y2="-94.583"><stop offset="0" stop-color="#e0e0e0"/><stop offset="1" stop-color="#eee"/></linearGradient></defs><path d="M3.523 19.273h14.895v.91H3.523zm0 0" fill="url(#a)"/><path d="M18.418 19.273h1.82v-.91h-1.82zm0 0" fill="url(#b)"/><path d="M3.523 19.273H1.707v.91h1.816zm0 0" fill="url(#c)"/><path d="M3.523 19.273H1.707v-.91h1.816zm0 0" fill="url(#d)"/><path d="M18.418 19.273h1.82v.91h-1.82zm0 0" fill="url(#e)"/><path d="M2.5 1.992h16.828c.379 0 .684.305.684.68V18.59a.682.682 0 0 1-.684.683H2.5a.681.681 0 0 1-.68-.683V2.672a.68.68 0 0 1 .68-.68zm0 0" fill="url(#f)"/><path d="M2.73 19.273a.909.909 0 0 1-.91-.91v-.113c0 .504.407.91.91.91h16.372c.503 0 .91-.406.91-.91v.113c0 .504-.407.91-.91.91zm0 0" fill-opacity=".196"/><path d="M2.73 1.992a.909.909 0 0 0-.91.91v.114c0-.504.407-.91.91-.91h16.372c.503 0 .91.406.91.91v-.114a.909.909 0 0 0-.91-.91zm0 0" fill="#e6e6e6" fill-opacity=".588"/><path d="M2.5 1.926a.749.749 0 0 0-.746.746V18.59c0 .414.336.746.746.746h16.828a.744.744 0 0 0 .746-.746V2.672a.746.746 0 0 0-.746-.746zm0 .129h16.828c.344 0 .617.273.617.617V18.59a.614.614 0 0 1-.617.617H2.5a.614.614 0 0 1-.617-.617V2.672c0-.344.273-.617.617-.617zm0 0" fill="#212121"/><path d="M190.527-103.465h211.616c5.909 0 10.636 4.727 10.636 10.544v19.544c0 5.817-4.727 10.544-10.636 10.544H190.527c-5.908 0-10.635-4.727-10.635-10.544v-19.544c0-5.817 4.727-10.544 10.635-10.544zm0 0" transform="matrix(.04297 0 0 .04297 0 9.24)" fill="url(#g)" stroke-width="3" stroke-linecap="round" stroke-linejoin="round" stroke="#212121"/><path d="M98.354-100.284c-4 4-3.908 10.545.273 14.726l22.725 22.725c1.909 1.91 4.454 2.91 7.09 2.91h.182c2.636 0 5.181-1 7.09-2.91l30.18-30.179c4.18-4.181 4.272-10.726.272-14.726l-.545-.454c-4-4-10.545-3.909-14.726.182l-22.362 22.452-14.998-14.998c-4.09-4.09-10.636-4.273-14.635-.273zm0 0" transform="matrix(.04297 0 0 .04297 0 9.24)" fill="url(#h)" stroke-width="3" stroke-linejoin="round" stroke="#212121"/><path d="M190.527-94.608h211.616a10.591 10.591 0 0 1 10.636 10.635v19.453a10.591 10.591 0 0 1-10.636 10.635H190.527a10.591 10.591 0 0 1-10.635-10.635v-19.453a10.591 10.591 0 0 1 10.635-10.635zm0 0" transform="matrix(.04297 0 0 .04297 0 11.968)" fill="url(#i)" stroke-width="3" stroke-linecap="round" stroke-linejoin="round" stroke="#212121"/><path d="M126.988-94.608c11.726 0 21.18 9.544 21.18 21.18a21.143 21.143 0 0 1-21.18 21.18c-11.635 0-21.18-9.455-21.18-21.18 0-11.636 9.545-21.18 21.18-21.18zm0 0" transform="matrix(.04297 0 0 .04297 0 11.968)" fill="url(#j)" stroke-width="3" stroke-linejoin="round" stroke="#212121"/><path d="M190.527-94.608h211.616a10.591 10.591 0 0 1 10.636 10.635v19.453a10.591 10.591 0 0 1-10.636 10.635H190.527a10.591 10.591 0 0 1-10.635-10.635v-19.453a10.591 10.591 0 0 1 10.635-10.635zm0 0" transform="matrix(.04297 0 0 .04297 0 15.152)" fill="url(#k)" stroke-width="3" stroke-linecap="round" stroke-linejoin="round" stroke="#212121"/><path d="M126.988-94.608c11.726 0 21.18 9.545 21.18 21.18a21.143 21.143 0 0 1-21.18 21.18c-11.635 0-21.18-9.454-21.18-21.18 0-11.635 9.545-21.18 21.18-21.18zm0 0" transform="matrix(.04297 0 0 .04297 0 15.152)" fill="url(#l)" stroke-width="3" stroke-linejoin="round" stroke="#212121"/><path d="M190.527-94.607h211.616a10.591 10.591 0 0 1 10.636 10.635v19.453a10.591 10.591 0 0 1-10.636 10.635H190.527a10.591 10.591 0 0 1-10.635-10.635v-19.453a10.591 10.591 0 0 1 10.635-10.635zm0 0" transform="matrix(.04297 0 0 .04297 0 18.335)" fill="url(#m)" stroke-width="3" stroke-linecap="round" stroke-linejoin="round" stroke="#212121"/><path d="M126.988-94.607c11.726 0 21.18 9.544 21.18 21.18a21.143 21.143 0 0 1-21.18 21.18c-11.635 0-21.18-9.455-21.18-21.18 0-11.636 9.545-21.18 21.18-21.18zm0 0" transform="matrix(.04297 0 0 .04297 0 18.335)" fill="url(#n)" stroke-width="3" stroke-linejoin="round" stroke="#212121"/></svg>
